X:751
T: Galician Jota
C: from Ian Hall
S: "Noel" <noelbats@onetel.com> tradtunes 2011-6-6
M:6/8
L:1/8
K:G
|: ded|"G"B2d ded|"D"A2d ded|"D"fed cBA|"G"B2G ded|!
"G"B2d ded|"D"A2A DFA|"D7"DFA cBA| "G"G3:||!
|:ded|"D"fed cde|"G"d2B ded|"D"fed cBA|"G"B2G ded|\
"D"fed cde|"G"d2B ded|"D7"fed cBA|"G"G3 ||
